html/dist/img/svg/big_tentacle_static.svg

<svg width="1920" height="1794" viewBox="0 0 1920 1794" fill="none" xmlns="http://www.w3.org/2000/svg"><mask id="mask0" maskUnits="userSpaceOnUse" x="-354" y="0" width="3042" height="1794"><path fill="#C4C4C4" d="M-353.341 0h3040.7v1793.61h-3040.7z"/></mask><g mask="url(#mask0)"><path d="M2080 1702.44v-576.45c0-.32.12-.42-.14-.61-8.8-6.35-446.89-321.613-842.36-391.736-794.948-140.955-1400.5 137-1400.5 137v158.496S445 679.981 902 911.481c437.42 221.579 1143.22 766.099 1176.76 792.039.66.51 1.24-.25 1.24-1.08z" fill="#404040"/><path d="M890 209.981c-528.825-27.574-1073.244 92.745-1089.697 96.415-.456.101-.382.417-.382.885v608.861c0 .668.278 1.256.919 1.068 26.778-7.861 633.122-184.229 1131.66-184.229 509.38 0 737.26 190.329 1213.01 424.779.66.33 1.46-.15 1.46-.89V523.231c0-.306.09-.413-.15-.601-8.08-6.273-346.67-265.192-1256.82-312.649z" fill="#4F4F4F"/></g><ellipse cx="525.334" cy="833.327" rx="145.282" ry="40.797" transform="rotate(178.387 525.334 833.327)" fill="#EE6D8F"/><ellipse cx="899.832" cy="917.925" rx="155.878" ry="60.015" transform="rotate(-152.379 899.832 917.925)" fill="#EE6D8F"/><ellipse cx="1239.26" cy="1110.23" rx="155.878" ry="62.743" transform="rotate(-149.739 1239.26 1110.23)" fill="#EE6D8F"/><ellipse cx="1190.31" cy="876.657" rx="146.065" ry="77.74" transform="rotate(-154.426 1190.31 876.657)" fill="#EE6D8F"/><ellipse cx="1554.78" cy="1034.28" rx="154.429" ry="82.191" transform="rotate(-154.426 1554.78 1034.28)" fill="#EE6D8F"/><ellipse cx="1618.84" cy="1333.46" rx="155.878" ry="82.963" transform="rotate(-151.034 1618.84 1333.46)" fill="#EE6D8F"/><ellipse cx="1918.78" cy="1212.28" rx="154.429" ry="82.191" transform="rotate(-154.426 1918.78 1212.28)" fill="#EE6D8F"/><ellipse cx="1989.26" cy="1540.8" rx="155.878" ry="82.963" transform="rotate(-165.26 1989.26 1540.8)" fill="#EE6D8F"/><ellipse cx="114.873" cy="900.507" rx="156.63" ry="44.813" transform="rotate(165.327 114.873 900.507)" fill="#EE6D8F"/></svg>

<svg width="1920" height="1794" viewBox="0 0 1920 1794" fill="none" xmlns="http://www.w3.org/2000/svg">
<mask id="mask0" mask-type="alpha" maskUnits="userSpaceOnUse" x="-354" y="0" width="3042" height="1794">
<rect x="-353.341" width="3040.7" height="1793.61" fill="#C4C4C4"/>
</mask>
<g mask="url(#mask0)">
    <path d="M2080 1702.44V1125.99C2080 1125.67 2080.12 1125.57 2079.86 1125.38C2071.06 1119.03 1632.97 803.767 1237.5 733.644C442.552 592.689 -163 870.644 -163 870.644V1029.14C-163 1029.14 445 679.981 902 911.481C1339.42 1133.06 2045.22 1677.58 2078.76 1703.52C2079.42 1704.03 2080 1703.27 2080 1702.44Z" fill="#404040"/>
    <path d="M890 209.981C361.175 182.407 -183.244 302.726 -199.697 306.396C-200.153 306.497 -200.079 306.813 -200.079 307.281V916.142C-200.079 916.81 -199.801 917.398 -199.16 917.21C-172.382 909.349 433.962 732.981 932.5 732.981C1441.88 732.981 1669.76 923.31 2145.51 1157.76C2146.17 1158.09 2146.97 1157.61 2146.97 1156.87V523.231C2146.97 522.925 2147.06 522.818 2146.82 522.63C2138.74 516.357 1800.15 257.438 890 209.981Z" fill="#4F4F4F" />
</g>
<ellipse cx="525.334" cy="833.327" rx="145.282" ry="40.797" transform="rotate(178.387 525.334 833.327)" fill="#EE6D8F"/>
<ellipse cx="899.832" cy="917.925" rx="155.878" ry="60.0151" transform="rotate(-152.379 899.832 917.925)" fill="#EE6D8F"/>
<ellipse cx="1239.26" cy="1110.23" rx="155.878" ry="62.7427" transform="rotate(-149.739 1239.26 1110.23)" fill="#EE6D8F"/>
<ellipse cx="1190.31" cy="876.657" rx="146.065" ry="77.7396" transform="rotate(-154.426 1190.31 876.657)" fill="#EE6D8F"/>
<ellipse cx="1554.78" cy="1034.28" rx="154.429" ry="82.1909" transform="rotate(-154.426 1554.78 1034.28)" fill="#EE6D8F"/>
<ellipse cx="1618.84" cy="1333.46" rx="155.878" ry="82.9625" transform="rotate(-151.034 1618.84 1333.46)" fill="#EE6D8F"/>
<ellipse cx="1918.78" cy="1212.28" rx="154.429" ry="82.1909" transform="rotate(-154.426 1918.78 1212.28)" fill="#EE6D8F"/>
<ellipse cx="1989.26" cy="1540.8" rx="155.878" ry="82.9625" transform="rotate(-165.26 1989.26 1540.8)" fill="#EE6D8F"/>
<ellipse cx="114.873" cy="900.507" rx="156.63" ry="44.8126" transform="rotate(165.327 114.873 900.507)" fill="#EE6D8F"/>
</svg>
